static/img/pages/customers/logos/innova.svg

<?xml version="1.0" encoding="UTF-8" standalone="no"?> <!-- Created with Vectornator for iOS (http://vectornator.io/) --><!DOCTYPE svg PUBLIC "-//W3C//DTD SVG 1.1//EN" "http://www.w3.org/Graphics/SVG/1.1/DTD/svg11.dtd">
<svg height="100%" style="fill-rule:nonzero;clip-rule:evenodd;stroke-linecap:round;stroke-linejoin:round;" xmlns:xlink="http://www.w3.org/1999/xlink" xmlns="http://www.w3.org/2000/svg" xml:space="preserve" width="100%" xmlns:vectornator="http://vectornator.io" version="1.1" viewBox="0 0 144 56">
<metadata>
<vectornator:setting key="DimensionsVisible" value="1"/>
<vectornator:setting key="PencilOnly" value="0"/>
<vectornator:setting key="SnapToPoints" value="0"/>
<vectornator:setting key="OutlineMode" value="0"/>
<vectornator:setting key="CMYKEnabledKey" value="0"/>
<vectornator:setting key="RulersVisible" value="1"/>
<vectornator:setting key="SnapToEdges" value="0"/>
<vectornator:setting key="GuidesVisible" value="1"/>
<vectornator:setting key="DisplayWhiteBackground" value="0"/>
<vectornator:setting key="doHistoryDisabled" value="0"/>
<vectornator:setting key="SnapToGuides" value="1"/>
<vectornator:setting key="TimeLapseWatermarkDisabled" value="0"/>
<vectornator:setting key="Units" value="Points"/>
<vectornator:setting key="DynamicGuides" value="0"/>
<vectornator:setting key="IsolateActiveLayer" value="0"/>
<vectornator:setting key="SnapToGrid" value="0"/>
</metadata>
<defs/>
<g id="Layer 1" vectornator:layerName="Layer 1">
<g opacity="1">
<path d="M23.2348+19.0206C22.0241+19.6779+22.1879+22.5256+23.4678+23.0607C24.089+23.3204+26.7411+23.3261+27.3574+23.0684C28.6958+22.5093+28.854+19.6715+27.5812+19.0143C27.027+18.7277+23.7664+18.7319+23.2355+19.0206M32.8975+18.9889C31.7546+19.4371+30.9929+20.1226+30.551+21.0996C30.2856+21.6862+30.2764+21.9531+30.2736+29.4839L30.2708+37.2618L36.3319+37.2618L36.3319+30.6557C36.3319+22.1324+36.082+22.7155+39.733+22.7155L42.0202+22.7155L42.5433+23.2386L43.0657+23.7609L43.0657+37.2618L49.1282+37.2618L49.1282+29.5672C49.1282+20.7763+49.1677+21.1314+48.0552+20.0118C46.8325+18.7813+47.021+18.8082+39.6419+18.8202C35.1233+18.8272+33.1855+18.8759+32.8982+18.9889M53.3475+19.0919C52.4954+19.4195+51.6236+20.2398+51.2361+21.0784C50.9516+21.694+50.9452+21.8486+50.9064+29.4839L50.8669+37.2618L57.0741+37.2618L57.079+30.5611C57.0854+22.0978+56.8249+22.7183+60.3743+22.7169C64.0338+22.7169+63.8086+22.1917+63.8086+30.7256L63.8086+37.2625L69.8768+37.2625L69.8394+29.3491L69.8019+21.4356L69.4342+20.8109C68.9894+20.0534+68.4099+19.5466+67.5119+19.1272L66.8385+18.8124L60.4406+18.818C54.3866+18.8237+54.0061+18.8378+53.3468+19.0919M73.8342+19.1936C71.7122+20.2045+71.6197+20.573+71.6197+28.036C71.6197+35.5181+71.727+35.9353+73.8956+36.9081L74.706+37.2717L81.2782+37.2328C87.4197+37.1975+87.8807+37.1778+88.3212+36.9406C89.2255+36.4535+89.7895+35.9001+90.1658+35.1348L90.5435+34.3661L90.5435+21.7053L90.1658+20.9372C89.7902+20.1713+89.2255+19.6193+88.3212+19.1315C87.8807+18.8936+87.4219+18.8745+81.2499+18.8413L74.6502+18.8046L73.8342+19.1929M92.3634+26.5882L92.3648+34.3661L92.6803+35.0445C93.4512+36.6999+94.6534+37.2632+97.403+37.259C100.715+37.254+100.334+37.6267+104.889+29.9216C105.458+28.9587+106.509+27.1854+107.225+25.9825L109.812+21.6213C110.52+20.4269+111.193+19.3058+111.309+19.1294L111.519+18.8096L106.572+18.8096L105.835+20.0555C105.429+20.7403+104.124+22.9378+102.935+24.9384C101.832+26.7912+100.731+28.6441+99.6308+30.4982L98.49+32.4218L98.4547+25.616L98.4201+18.8094L92.3619+18.8094L92.3634+26.5882M114.265+19.0072C113.044+19.4428+113.183+19.2423+107.649+28.5747C106.43+30.6318+105.209+32.6878+103.986+34.7428C103.29+35.9132+102.685+36.9587+102.644+37.0667C102.58+37.2326+102.93+37.2616+104.992+37.2616L107.414+37.2616L108.151+36.0156C109.088+34.4343+113.393+27.1802+114.606+25.1401L115.527+23.5913L115.527+25.9816L115.528+28.3725L116.004+28.3725C116.987+28.3725+118.197+29.2055+118.644+30.1896C119.53+32.1401+117.999+34.5678+115.883+34.5678L115.528+34.5678L115.528+37.2616L121.589+37.2616L121.586+29.4166C121.582+20.5572+121.631+20.9893+120.513+19.9042C119.446+18.8694+116.029+18.3787+114.265+19.0077M83.6655+22.9779C84.3961+23.4593+84.4046+23.5221+84.4103+28.009C84.4173+33.5922+84.5634+33.3564+81.0882+33.3557C77.6164+33.3543+77.6807+33.4552+77.6807+28.0358C77.6807+22.6094+77.6115+22.716+81.115+22.7167C83.0189+22.7167+83.3161+22.7477+83.6655+22.9779M22.4583+30.864L22.4583+37.2618L28.5194+37.2618L28.5194+24.4669L22.4583+24.4669L22.4583+30.864" fill-rule="evenodd" fill="#0c5c9c" opacity="1"/>
<path d="M116.995+29.1939C119.275+30.3978+118.61+33.8218+116.045+34.0867C114.361+34.2606+113.059+33.1363+113.059+31.509C113.059+29.5132+115.207+28.2497+116.995+29.1939" fill-rule="evenodd" fill="#ec1c2c" opacity="1"/>
</g>
</g>
</svg>

<svg xmlns:xlink="http://www.w3.org/1999/xlink" xmlns="http://www.w3.org/2000/svg" xml:space="preserve" xmlns:vectornator="http://vectornator.io" viewBox="0 0 144 56" clip-rule="evenodd" stroke-linecap="round" stroke-linejoin="round">
  <g fill-rule="evenodd" vectornator:layerName="Layer 1">
    <path d="M23.235 19.02c-1.21.658-1.047 3.506.233 4.04.621.26 3.273.266 3.89.008 1.338-.559 1.496-3.396.223-4.054-.554-.286-3.815-.282-4.346.007m9.663-.032c-1.143.448-1.905 1.134-2.347 2.11-.265.587-.275.854-.277 8.385l-.003 7.778h6.06v-6.606c0-8.524-.249-7.94 3.402-7.94h2.287l.523.523.523.522v13.5h6.062v-7.694c0-8.79.04-8.436-1.073-9.555-1.222-1.23-1.034-1.204-8.413-1.192-4.519.007-6.457.056-6.744.169m20.45.103c-.853.328-1.724 1.148-2.112 1.986-.284.616-.29.77-.33 8.406l-.04 7.778h6.208l.005-6.7c.006-8.464-.254-7.844 3.295-7.845 3.66 0 3.435-.525 3.435 8.009v6.537h6.068l-.038-7.914-.037-7.913-.368-.625c-.445-.758-1.024-1.264-1.922-1.684l-.674-.315-6.397.006c-6.054.006-6.435.02-7.094.274m20.487.102c-2.122 1.01-2.214 1.379-2.214 8.842 0 7.482.107 7.9 2.276 8.872l.81.364 6.572-.04c6.142-.035 6.603-.054 7.043-.291.904-.488 1.469-1.04 1.845-1.806l.377-.769v-12.66l-.377-.769c-.376-.766-.94-1.318-1.845-1.806-.44-.237-.9-.256-7.071-.29l-6.6-.036-.816.388m18.53 7.395v7.778l.316.678c.771 1.656 1.973 2.22 4.723 2.215 3.312-.005 2.931.368 7.486-7.337.569-.963 1.62-2.737 2.336-3.94l2.587-4.36a152.5 152.5 0 0 1 1.497-2.493l.21-.32h-4.947l-.737 1.246c-.406.685-1.711 2.883-2.9 4.883a4539.982 4539.982 0 0 0-3.304 5.56l-1.141 1.924-.035-6.806-.035-6.807h-6.058l.001 7.78m21.902-7.582c-1.221.436-1.082.235-6.616 9.568-1.219 2.057-2.44 4.113-3.663 6.168-.696 1.17-1.301 2.216-1.342 2.324-.064.166.286.195 2.348.195h2.422l.737-1.246c.937-1.582 5.242-8.836 6.455-10.876l.921-1.549v2.39l.001 2.391h.476c.983 0 2.193.834 2.64 1.818.886 1.95-.645 4.378-2.761 4.378h-.355v2.694h6.061l-.003-7.845c-.004-8.86.045-8.428-1.073-9.513-1.067-1.035-4.484-1.525-6.248-.896m-30.6 3.97c.731.481.74.544.745 5.031.007 5.583.153 5.347-3.322 5.347-3.472-.002-3.407.1-3.407-5.32 0-5.427-.07-5.32 3.434-5.32 1.904 0 2.201.032 2.55.262m-61.207 7.886v6.398h6.061V24.467h-6.06v6.397" fill="#0c5c9c"/>
    <path d="M116.995 29.194c2.28 1.204 1.615 4.628-.95 4.893-1.684.174-2.986-.95-2.986-2.578 0-1.996 2.148-3.26 3.936-2.315" fill="#ec1c2c"/>
  </g>
</svg>
